X: 41820
T: View Across The Valley, The
R: reel
M: 4/4
K: Dmajor
fded ABFB|AF~F2 DFAd|f2ed BAFA|Beed e2de|
fded ABFB|AF~F2 DFAd|fa~a2 b2af|dBAG FDD2:|
|:fa~a2 bfaf|dB~B2 AF~F2|A2AB defd|e2df edBd|
fa~a2 bfaf|dB~B2 AF~F2|A2AB defe|dBAG FDD2:|

